packages/core/src/svgs/lbl.svg

<svg width="24" height="24" viewBox="0 0 24 24" fill="none" xmlns="http://www.w3.org/2000/svg">
<g clip-path="url(#clip0_31_13019)">
<path d="M0 0H24V24H0V0Z" fill="#F0F3FA"/>
<path d="M15.0001 5.35701C14.0631 4.91411 13.0363 4.69408 12.0001 4.71415C10.5588 4.71245 9.1493 5.13831 7.95004 5.93785C6.75078 6.73738 5.81562 7.87466 5.26287 9.2058C4.71012 10.5369 4.56461 12.0021 4.84476 13.416C5.12492 14.8298 5.81814 16.1288 6.83672 17.1486C7.8553 18.1684 9.15348 18.8631 10.567 19.145C11.9805 19.4268 13.4459 19.283 14.7777 18.7318C16.1095 18.1806 17.2478 17.2468 18.0488 16.0485C18.8497 14.8502 19.2772 13.4412 19.2772 11.9999C19.2772 9.66844 18.0044 7.46558 16.2858 6.12844V11.9999H16.0972C16.033 14.1942 14.8801 14.5456 12.5701 14.5456C10.2044 14.5456 7.70581 14.3784 7.70581 12.0042C7.70581 9.62986 9.62153 7.90272 11.9958 7.90272C13.2301 7.90272 14.233 8.19844 15.0001 8.99558V5.35272V5.35701Z" fill="url(#paint0_linear_31_13019)"/>
<path d="M15 5.82871L14.8714 5.79013C14.5285 5.67871 14.1857 5.57156 13.6885 5.57156C11.8671 5.55442 9.38997 6.3387 8.17283 9.41156C7.91569 10.3458 7.9114 11.1258 7.90283 11.6658V11.773C7.90283 12.763 8.4514 12.4458 9.28712 11.9658C9.97283 11.5673 10.8514 11.0616 11.7728 11.0873C11.9871 11.0958 12.2185 11.1173 12.4585 11.143C13.44 11.2458 14.5628 11.3573 15 10.3287V5.82871ZM16.2857 10.4744C16.8358 11.3918 17.1317 12.4391 17.1428 13.5087C17.1043 15.9516 15.8057 18.2658 13.1143 19.1958C17.58 18.3987 19.2857 14.7687 19.2857 11.8458C19.2623 10.8739 19.0429 9.91673 18.6409 9.03157C18.2388 8.14641 17.6622 7.3515 16.9457 6.69442C16.7657 6.58728 16.5 6.43728 16.2857 6.32156V10.4787V10.4744Z" fill="url(#paint1_linear_31_13019)"/>
<path d="M14.9999 5.35714C14.0669 4.91691 13.0442 4.69976 12.0128 4.72286C10.5528 4.71791 9.12525 5.15271 7.91594 5.97064C6.70663 6.78857 5.77165 7.95171 5.23279 9.30857C5.16421 9.69 5.13421 10.1871 5.14279 10.7871C5.15993 11.9271 6.0985 16.6929 11.0271 16.7143C11.5242 16.7143 12.0299 16.4871 12.4671 16.2857C12.6256 16.2171 12.7756 16.1486 12.9128 16.0971C14.0485 15.4114 12.5056 14.0486 12.2271 14.0486C11.7856 14.0486 11.4256 14.07 11.1256 14.0829C9.80993 14.1514 9.72421 14.1557 9.72421 12.2271C9.72421 12.0257 9.31279 11.7814 8.90564 11.5414C8.48564 11.2929 8.07421 11.0486 8.12993 10.86C8.12993 9.60857 9.38136 5.78143 13.4442 5.78143C14.0485 5.78143 14.4985 5.78572 14.9999 5.88857V5.35714Z" fill="url(#paint2_linear_31_13019)"/>
<path d="M11.9956 7.71436C13.1334 7.71436 14.2246 8.16634 15.0291 8.97087C15.8336 9.7754 16.2856 10.8666 16.2856 12.0044C16.2856 13.1421 15.8336 14.2333 15.0291 15.0378C14.2246 15.8424 13.1334 16.2944 11.9956 16.2944C11.4323 16.2941 10.8745 16.1828 10.3541 15.967C9.83369 15.7511 9.36093 15.4349 8.96276 15.0363C8.15863 14.2314 7.7072 13.14 7.70776 12.0022C7.70833 10.8644 8.16086 9.77348 8.96579 8.96935C9.77072 8.16522 10.8621 7.71379 11.9999 7.71436H11.9956Z" fill="#F0F3FA"/>
<path d="M11.9999 9C12.7962 9 13.5598 9.3163 14.1228 9.87931C14.6858 10.4423 15.0021 11.2059 15.0021 12.0021C15.0021 12.7984 14.6858 13.562 14.1228 14.125C13.5598 14.688 12.7962 15.0043 11.9999 15.0043C11.2037 15.0043 10.4401 14.688 9.87711 14.125C9.3141 13.562 8.9978 12.7984 8.9978 12.0021C8.9978 11.2059 9.3141 10.4423 9.87711 9.87931C10.4401 9.3163 11.2037 9 11.9999 9Z" fill="url(#paint3_linear_31_13019)"/>
</g>
<defs>
<linearGradient id="paint0_linear_31_13019" x1="17.9187" y1="13.1399" x2="4.48724" y2="12.227" gradientUnits="userSpaceOnUse">
<stop stop-color="#F00078"/>
<stop offset="0.91" stop-color="#83008D"/>
</linearGradient>
<linearGradient id="paint1_linear_31_13019" x1="18.1457" y1="7.4487" x2="9.72426" y2="15.643" gradientUnits="userSpaceOnUse">
<stop offset="0.04" stop-color="#BA0083"/>
<stop offset="1" stop-color="#93008A"/>
</linearGradient>
<linearGradient id="paint2_linear_31_13019" x1="6.53564" y1="6.08143" x2="12.6814" y2="16.7829" gradientUnits="userSpaceOnUse">
<stop offset="0.31" stop-color="#EA007A"/>
<stop offset="1" stop-color="#9B0088"/>
</linearGradient>
<linearGradient id="paint3_linear_31_13019" x1="14.7857" y1="13.7143" x2="9.6428" y2="9.64286" gradientUnits="userSpaceOnUse">
<stop stop-color="#B20084"/>
<stop offset="1" stop-color="#F10078"/>
</linearGradient>
<clipPath id="clip0_31_13019">
<rect width="24" height="24" fill="white"/>
</clipPath>
</defs>
</svg>

<svg xmlns="http://www.w3.org/2000/svg" width="24" height="24" fill="none" viewBox="0 0 24 24"><g clip-path="url(#a)"><path fill="#F0F3FA" d="M0 0h24v24H0z"/><path fill="url(#b)" d="M15 5.357a6.7 6.7 0 0 0-3-.643A7.286 7.286 0 1 0 19.277 12c0-2.332-1.273-4.534-2.991-5.872V12h-.189c-.064 2.194-1.217 2.546-3.527 2.546-2.366 0-4.864-.168-4.864-2.542s1.916-4.101 4.29-4.101c1.234 0 2.237.295 3.004 1.093V5.353z"/><path fill="url(#c)" d="m15 5.829-.129-.039c-.343-.111-.685-.218-1.183-.218-1.82-.018-4.298.767-5.515 3.84-.257.934-.262 1.714-.27 2.254v.107c0 .99.548.673 1.384.193.686-.399 1.564-.904 2.486-.879.214.009.446.03.686.056.981.103 2.104.214 2.541-.814zm1.286 4.645c.55.918.846 1.965.857 3.035-.039 2.443-1.337 4.757-4.029 5.687 4.466-.797 6.172-4.427 6.172-7.35a7.23 7.23 0 0 0-2.34-5.152c-.18-.107-.446-.257-.66-.372v4.157z"/><path fill="url(#d)" d="M15 5.357a6.65 6.65 0 0 0-2.987-.634 7.27 7.27 0 0 0-6.78 4.586c-.069.381-.099.878-.09 1.478.017 1.14.955 5.906 5.884 5.927.497 0 1.003-.227 1.44-.428.159-.069.309-.137.446-.189 1.136-.686-.407-2.048-.686-2.048-.441 0-.801.021-1.101.034-1.316.068-1.402.073-1.402-1.856 0-.201-.411-.446-.818-.686-.42-.248-.832-.492-.776-.681 0-1.251 1.251-5.079 5.314-5.079.604 0 1.054.005 1.556.108z"/><path fill="#F0F3FA" d="M11.996 7.714a4.29 4.29 0 1 1-3.03 1.255A4.3 4.3 0 0 1 12 7.714z"/><path fill="url(#e)" d="M12 9a3.002 3.002 0 1 1 0 6.004A3.002 3.002 0 0 1 12 9"/></g><defs><linearGradient id="b" x1="17.919" x2="4.487" y1="13.14" y2="12.227" gradientUnits="userSpaceOnUse"><stop stop-color="#F00078"/><stop offset=".91" stop-color="#83008D"/></linearGradient><linearGradient id="c" x1="18.146" x2="9.724" y1="7.449" y2="15.643" gradientUnits="userSpaceOnUse"><stop offset=".04" stop-color="#BA0083"/><stop offset="1" stop-color="#93008A"/></linearGradient><linearGradient id="d" x1="6.536" x2="12.681" y1="6.081" y2="16.783" gradientUnits="userSpaceOnUse"><stop offset=".31" stop-color="#EA007A"/><stop offset="1" stop-color="#9B0088"/></linearGradient><linearGradient id="e" x1="14.786" x2="9.643" y1="13.714" y2="9.643" gradientUnits="userSpaceOnUse"><stop stop-color="#B20084"/><stop offset="1" stop-color="#F10078"/></linearGradient><clipPath id="a"><path fill="#fff" d="M0 0h24v24H0z"/></clipPath></defs></svg>
